source/img/icons/icon-fill-tablet.svg

<svg width="24" height="22" viewBox="0 0 24 22" fill="none" xmlns="http://www.w3.org/2000/svg">
<path d="M16.56 9.14791L7.62 0L6.205 1.44791L8.585 3.88326L3.44 9.14791C3.1591 9.4357 3.00132 9.82581 3.00132 10.2326C3.00132 10.6393 3.1591 11.0294 3.44 11.3172L8.94 16.9451C9.22125 17.2325 9.6025 17.394 10 17.394C10.3975 17.394 10.7787 17.2325 11.06 16.9451L16.56 11.3172C16.8409 11.0294 16.9987 10.6393 16.9987 10.2326C16.9987 9.82581 16.8409 9.4357 16.56 9.14791ZM5.205 10.2326L10 5.33116L14.795 10.2326H5.205ZM19 11.7674C19 11.7674 17 13.9828 17 15.3488C17 15.8916 17.2107 16.4121 17.5858 16.7959C17.9609 17.1797 18.4696 17.3953 19 17.3953C19.5304 17.3953 20.0391 17.1797 20.4142 16.7959C20.7893 16.4121 21 15.8916 21 15.3488C21 13.9828 19 11.7674 19 11.7674Z" fill="#D22856"/>
<path d="M24 20.4651H0V22H24V20.4651Z" fill="#D22856"/>
</svg>

<svg xmlns="http://www.w3.org/2000/svg" width="24" height="22" fill="none"><path fill="#D22856" d="M16.56 9.15 7.62 0 6.2 1.45 8.6 3.88 3.44 9.15a1.55 1.55 0 0 0 0 2.17l5.5 5.63a1.48 1.48 0 0 0 2.12 0l5.5-5.63a1.55 1.55 0 0 0 0-2.17ZM5.21 10.23 10 5.33l4.8 4.9H5.2ZM19 11.77s-2 2.21-2 3.58c0 .54.21 1.06.59 1.45a1.98 1.98 0 0 0 2.82 0c.38-.39.59-.9.59-1.45 0-1.37-2-3.58-2-3.58ZM24 20.47H0V22h24v-1.53Z"/></svg>
